humanity-icon-theme/Humanity/mimes/48/package-x-generic.svg

<?xml version="1.0" encoding="UTF-8" standalone="no"?>
<!-- Created with Inkscape (http://www.inkscape.org/) -->
<svg
   xmlns:svg="http://www.w3.org/2000/svg"
   xmlns="http://www.w3.org/2000/svg"
   xmlns:xlink="http://www.w3.org/1999/xlink"
   version="1.0"
   width="48"
   height="48"
   id="svg3263">
  <defs
     id="defs3265">
    <radialGradient
       cx="5"
       cy="41.5"
       r="5"
       fx="5"
       fy="41.5"
       id="radialGradient3314"
       xlink:href="#linearGradient3681"
       gradientUnits="userSpaceOnUse"
       gradientTransform="matrix(0.5938225,0,0,1.5366531,41.140892,-103.93618)" />
    <linearGradient
       id="linearGradient3703">
      <stop
         id="stop3705"
         style="stop-color:#000000;stop-opacity:0"
         offset="0" />
      <stop
         id="stop3711"
         style="stop-color:#000000;stop-opacity:1"
         offset="0.5" />
      <stop
         id="stop3707"
         style="stop-color:#000000;stop-opacity:0"
         offset="1" />
    </linearGradient>
    <linearGradient
       x1="17.554192"
       y1="46.000275"
       x2="17.554192"
       y2="34.999718"
       id="linearGradient3312"
       xlink:href="#linearGradient3703"
       gradientUnits="userSpaceOnUse"
       gradientTransform="matrix(1.7570316,0,0,1.3969574,-17.394014,-16.411698)" />
    <linearGradient
       id="linearGradient3681">
      <stop
         id="stop3683"
         style="stop-color:#000000;stop-opacity:1"
         offset="0" />
      <stop
         id="stop3685"
         style="stop-color:#000000;stop-opacity:0"
         offset="1" />
    </linearGradient>
    <radialGradient
       cx="5"
       cy="41.5"
       r="5"
       fx="5"
       fy="41.5"
       id="radialGradient3310"
       xlink:href="#linearGradient3681"
       gradientUnits="userSpaceOnUse"
       gradientTransform="matrix(0.5938225,0,0,1.5366531,-6.6594735,-103.93618)" />
    <linearGradient
       id="linearGradient3295">
      <stop
         id="stop3297"
         style="stop-color:#c9af8b;stop-opacity:1"
         offset="0" />
      <stop
         id="stop3299"
         style="stop-color:#ad8757;stop-opacity:1"
         offset="0.23942046" />
      <stop
         id="stop3301"
         style="stop-color:#c2a57f;stop-opacity:1"
         offset="0.27582464" />
      <stop
         id="stop3303"
         style="stop-color:#9d7d53;stop-opacity:1"
         offset="1" />
    </linearGradient>
    <linearGradient
       x1="15.464298"
       y1="7.9756851"
       x2="15.464298"
       y2="45.04248"
       id="linearGradient3293"
       xlink:href="#linearGradient3295"
       gradientUnits="userSpaceOnUse" />
    <linearGradient
       id="linearGradient3199">
      <stop
         id="stop3201"
         style="stop-color:#dac197;stop-opacity:1"
         offset="0" />
      <stop
         id="stop3203"
         style="stop-color:#c1a581;stop-opacity:1"
         offset="0.23942046" />
      <stop
         id="stop3205"
         style="stop-color:#dac197;stop-opacity:1"
         offset="0.27582464" />
      <stop
         id="stop3207"
         style="stop-color:#a68b60;stop-opacity:1"
         offset="1" />
    </linearGradient>
    <linearGradient
       x1="24.822832"
       y1="15.377745"
       x2="24.996943"
       y2="37.27668"
       id="linearGradient3197"
       xlink:href="#linearGradient3199"
       gradientUnits="userSpaceOnUse"
       gradientTransform="matrix(1.2822251,0,0,1.5572619,-6.0701918,-15.290756)" />
    <linearGradient
       id="linearGradient3219">
      <stop
         id="stop3225"
         style="stop-color:#cbad7a;stop-opacity:1"
         offset="0" />
      <stop
         id="stop3227"
         style="stop-color:#cbae7d;stop-opacity:0"
         offset="1" />
    </linearGradient>
    <radialGradient
       cx="24"
       cy="31"
       r="20"
       fx="24"
       fy="31"
       id="radialGradient3217"
       xlink:href="#linearGradient3219"
       gradientUnits="userSpaceOnUse"
       gradientTransform="matrix(1.6547439,0,0,0.65,-15.713854,10.85)" />
    <linearGradient
       id="linearGradient4559">
      <stop
         id="stop4561"
         style="stop-color:#ffffff;stop-opacity:0"
         offset="0" />
      <stop
         id="stop4563"
         style="stop-color:#ffffff;stop-opacity:0"
         offset="1" />
    </linearGradient>
    <linearGradient
       x1="23.451576"
       y1="30.554907"
       x2="43.00663"
       y2="45.934479"
       id="linearGradient2659"
       xlink:href="#linearGradient4559"
       gradientUnits="userSpaceOnUse"
       gradientTransform="matrix(1.2822251,0,0,1.1746872,-6.0701918,-5.3031677)" />
    <linearGradient
       id="linearGradient3827">
      <stop
         id="stop3829"
         style="stop-color:#ffffff;stop-opacity:1"
         offset="0" />
      <stop
         id="stop4295"
         style="stop-color:#ffffff;stop-opacity:1"
         offset="0.3021296" />
      <stop
         id="stop4293"
         style="stop-color:#ffffff;stop-opacity:0.6901961"
         offset="0.34361121" />
      <stop
         id="stop3832"
         style="stop-color:#ffffff;stop-opacity:0"
         offset="1" />
    </linearGradient>
    <linearGradient
       x1="26"
       y1="22"
       x2="26"
       y2="8"
       id="linearGradient3834"
       xlink:href="#linearGradient3827"
       gradientUnits="userSpaceOnUse" />
    <linearGradient
       id="linearGradient3275">
      <stop
         id="stop3277"
         style="stop-color:#ffffff;stop-opacity:0"
         offset="0" />
      <stop
         id="stop3283"
         style="stop-color:#ffffff;stop-opacity:1"
         offset="0.16682135" />
      <stop
         id="stop3285"
         style="stop-color:#ffffff;stop-opacity:1"
         offset="0.83237511" />
      <stop
         id="stop3279"
         style="stop-color:#ffffff;stop-opacity:0"
         offset="1" />
    </linearGradient>
    <linearGradient
       x1="44.994774"
       y1="17.5"
       x2="3.0052247"
       y2="17.5"
       id="linearGradient3281"
       xlink:href="#linearGradient3275"
       gradientUnits="userSpaceOnUse"
       spreadMethod="reflect" />
  </defs>
  <g
     id="layer1">
    <g
       transform="matrix(0.9926623,0,0,0.9761474,0.2751901,1.2929634)"
       id="g3305"
       style="opacity:0.4;display:inline">
      <rect
         width="2.9601951"
         height="15.366531"
         x="-3.6903627"
         y="-47.848343"
         transform="scale(-1,-1)"
         id="rect2484"
         style="opacity:1;fill:url(#radialGradient3310);fill-opacity:1;stroke:none;stroke-width:1;stroke-linecap:round;stroke-linejoin:miter;stroke-miterlimit:4;stroke-dasharray:none;stroke-dashoffset:1.20000057;stroke-opacity:1" />
      <rect
         width="40.41172"
         height="15.366531"
         x="3.6903627"
         y="32.481812"
         id="rect2486"
         style="opacity:1;fill:url(#linearGradient3312);fill-opacity:1;stroke:none;stroke-width:1;stroke-linecap:round;stroke-linejoin:miter;stroke-miterlimit:4;stroke-dasharray:none;stroke-dashoffset:1.20000057;stroke-opacity:1" />
      <rect
         width="2.9601951"
         height="15.366531"
         x="44.110001"
         y="-47.848343"
         transform="scale(1,-1)"
         id="rect3444"
         style="opacity:1;fill:url(#radialGradient3314);fill-opacity:1;stroke:none;stroke-width:1;stroke-linecap:round;stroke-linejoin:miter;stroke-miterlimit:4;stroke-dasharray:none;stroke-dashoffset:1.20000057;stroke-opacity:1;display:inline" />
    </g>
    <path
       d="M 9.010725,8.5 L 38.508448,8.5 C 40.230433,8.5 41.00537,8.2134495 41.5,9.5 L 44.501734,17.5 L 44.501734,43.173912 C 44.501734,44.727216 44.604664,44.489888 42.882671,44.489888 L 5.1173288,44.489888 C 3.3953364,44.489888 3.4982653,44.727216 3.4982653,43.173912 L 3.4982653,17.5 L 6.5,9.5 C 6.9808316,8.2394378 7.2887325,8.5 9.010725,8.5 z"
       id="path2488"
       style="fill:url(#linearGradient3197);fill-opacity:1;fill-rule:nonzero;stroke:url(#linearGradient3293);stroke-width:0.99420077;stroke-linecap:round;stroke-linejoin:miter;marker:none;marker-start:none;marker-mid:none;marker-end:none;stroke-miterlimit:4;stroke-dasharray:none;stroke-dashoffset:0;stroke-opacity:1;visibility:visible;display:block;overflow:visible" />
    <rect
       width="40"
       height="26"
       x="4"
       y="18"
       id="rect3209"
       style="opacity:1;fill:url(#radialGradient3217);fill-opacity:1;fill-rule:evenodd;stroke:none;stroke-width:1.69999993;stroke-linecap:round;stroke-linejoin:miter;marker:none;marker-start:none;marker-mid:none;marker-end:none;stroke-miterlimit:4;stroke-dasharray:none;stroke-dashoffset:0;stroke-opacity:1;visibility:visible;display:inline;overflow:visible;enable-background:accumulate" />
    <path
       d="M 9.948194,9.5129459 L 37.601066,9.5129459 C 39.215359,9.5129459 40.214446,10.069482 40.890587,11.598974 L 43.219527,18.018695 L 43.219527,41.163252 C 43.219527,42.623928 42.400768,43.359337 40.786471,43.359337 L 7.0532679,43.359337 C 5.4389745,43.359337 4.7804918,42.55051 4.7804918,41.089833 L 4.7804918,18.018695 L 7.0343027,11.461335 C 7.4850649,10.275943 8.3338968,9.5129459 9.948194,9.5129459 z"
       id="path2490"
       style="opacity:0.50549454;fill:none;fill-opacity:1;fill-rule:nonzero;stroke:url(#linearGradient2659);stroke-width:0.74211526;stroke-linecap:butt;stroke-linejoin:miter;marker:none;marker-start:none;marker-mid:none;marker-end:none;stroke-miterlimit:4;stroke-dasharray:none;stroke-dashoffset:0;stroke-opacity:1;visibility:visible;display:block;overflow:visible" />
    <path
       d="M 22,8 C 23.333333,8 24.666667,8 26,8 C 26,12.666667 26,17.333333 26,22 C 25.606271,22 25.212542,22 24.818813,22 C 24.415688,22 24.012563,22 23.609438,22 C 23.284909,22 22.960381,22 22.635853,22 C 22.423902,22 22.211951,22 22,22 C 22,17.333333 22,12.666667 22,8 z"
       id="rect3326"
       style="opacity:0.4;fill:url(#linearGradient3834);fill-opacity:1;fill-rule:nonzero;stroke:none;stroke-width:1;stroke-linecap:square;stroke-linejoin:round;marker:none;marker-start:none;marker-mid:none;marker-end:none;stroke-miterlimit:4;stroke-dasharray:none;stroke-dashoffset:0;stroke-opacity:1;visibility:visible;display:inline;overflow:visible;enable-background:accumulate" />
    <path
       d="M 3.5052248,17.5 L 44.494775,17.5"
       id="path3273"
       style="opacity:0.3;fill:none;fill-rule:evenodd;stroke:url(#linearGradient3281);stroke-width:1px;stroke-linecap:square;stroke-linejoin:miter;stroke-opacity:1;display:inline" />
  </g>
</svg>

<?xml version="1.0" encoding="UTF-8" standalone="no"?>
<!-- Created with Inkscape (http://www.inkscape.org/) -->
<svg id="svg3263" xmlns="http://www.w3.org/2000/svg" height="48" width="48" version="1.0" xmlns:xlink="http://www.w3.org/1999/xlink">
 <defs id="defs3265">
  <radialGradient id="radialGradient3314" xlink:href="#linearGradient3681" gradientUnits="userSpaceOnUse" cy="41.5" cx="5" gradientTransform="matrix(.59382 0 0 1.5367 41.141 -103.94)" r="5"/>
  <linearGradient id="linearGradient3312" y2="35" gradientUnits="userSpaceOnUse" x2="17.554" gradientTransform="matrix(1.757 0 0 1.397 -17.394 -16.412)" y1="46" x1="17.554">
   <stop id="stop3705" style="stop-opacity:0" offset="0"/>
   <stop id="stop3711" offset=".5"/>
   <stop id="stop3707" style="stop-opacity:0" offset="1"/>
  </linearGradient>
  <linearGradient id="linearGradient3681">
   <stop id="stop3683" offset="0"/>
   <stop id="stop3685" style="stop-opacity:0" offset="1"/>
  </linearGradient>
  <radialGradient id="radialGradient3310" xlink:href="#linearGradient3681" gradientUnits="userSpaceOnUse" cy="41.5" cx="5" gradientTransform="matrix(.59382 0 0 1.5367 -6.6595 -103.94)" r="5"/>
  <linearGradient id="linearGradient3293" y2="45.042" gradientUnits="userSpaceOnUse" x2="15.464" y1="7.9757" x1="15.464">
   <stop id="stop3297" style="stop-color:#c9af8b" offset="0"/>
   <stop id="stop3299" style="stop-color:#ad8757" offset=".23942"/>
   <stop id="stop3301" style="stop-color:#c2a57f" offset=".27582"/>
   <stop id="stop3303" style="stop-color:#9d7d53" offset="1"/>
  </linearGradient>
  <linearGradient id="linearGradient3197" y2="37.277" gradientUnits="userSpaceOnUse" x2="24.997" gradientTransform="matrix(1.2822 0 0 1.5573 -6.0702 -15.291)" y1="15.378" x1="24.823">
   <stop id="stop3201" style="stop-color:#dac197" offset="0"/>
   <stop id="stop3203" style="stop-color:#c1a581" offset=".23942"/>
   <stop id="stop3205" style="stop-color:#dac197" offset=".27582"/>
   <stop id="stop3207" style="stop-color:#a68b60" offset="1"/>
  </linearGradient>
  <radialGradient id="radialGradient3217" gradientUnits="userSpaceOnUse" cy="31" cx="24" gradientTransform="matrix(1.6547 0 0 .65 -15.714 10.85)" r="20">
   <stop id="stop3225" style="stop-color:#cbad7a" offset="0"/>
   <stop id="stop3227" style="stop-color:#cbae7d;stop-opacity:0" offset="1"/>
  </radialGradient>
  <linearGradient id="linearGradient2659" y2="45.934" gradientUnits="userSpaceOnUse" x2="43.007" gradientTransform="matrix(1.2822 0 0 1.1747 -6.0702 -5.3032)" y1="30.555" x1="23.452">
   <stop id="stop4561" style="stop-color:#fff;stop-opacity:0" offset="0"/>
   <stop id="stop4563" style="stop-color:#fff;stop-opacity:0" offset="1"/>
  </linearGradient>
  <linearGradient id="linearGradient3834" y2="8" gradientUnits="userSpaceOnUse" x2="26" y1="22" x1="26">
   <stop id="stop3829" style="stop-color:#fff" offset="0"/>
   <stop id="stop4295" style="stop-color:#fff" offset=".30213"/>
   <stop id="stop4293" style="stop-color:#fff;stop-opacity:.69020" offset=".34361"/>
   <stop id="stop3832" style="stop-color:#fff;stop-opacity:0" offset="1"/>
  </linearGradient>
  <linearGradient id="linearGradient3281" y2="17.5" spreadMethod="reflect" gradientUnits="userSpaceOnUse" x2="3.0052" y1="17.5" x1="44.995">
   <stop id="stop3277" style="stop-color:#fff;stop-opacity:0" offset="0"/>
   <stop id="stop3283" style="stop-color:#fff" offset=".16682"/>
   <stop id="stop3285" style="stop-color:#fff" offset=".83238"/>
   <stop id="stop3279" style="stop-color:#fff;stop-opacity:0" offset="1"/>
  </linearGradient>
 </defs>
 <g id="layer1">
  <g id="g3305" style="opacity:.4" transform="matrix(.99266 0 0 .97615 .27519 1.293)">
   <rect id="rect2484" style="opacity:1;fill:url(#radialGradient3310)" transform="scale(-1)" height="15.367" width="2.9602" y="-47.848" x="-3.6904"/>
   <rect id="rect2486" style="opacity:1;fill:url(#linearGradient3312)" height="15.367" width="40.412" y="32.482" x="3.6904"/>
   <rect id="rect3444" style="opacity:1;fill:url(#radialGradient3314)" transform="scale(1,-1)" height="15.367" width="2.9602" y="-47.848" x="44.11"/>
  </g>
  <path id="path2488" style="stroke:url(#linearGradient3293);stroke-linecap:round;stroke-width:.99420;display:block;fill:url(#linearGradient3197)" d="m9.0107 8.5h29.497c1.722 0 2.497-0.2866 2.992 1l3.002 8v25.674c0 1.553 0.103 1.316-1.619 1.316h-37.766c-1.7217 0-1.6187 0.237-1.6187-1.316v-25.674l3.0017-8c0.4808-1.2606 0.7887-1 2.5107-1z"/>
  <rect id="rect3209" style="fill-rule:evenodd;fill:url(#radialGradient3217)" height="26" width="40" y="18" x="4"/>
  <path id="path2490" style="opacity:.50549;stroke:url(#linearGradient2659);stroke-width:.74212;display:block;fill:none" d="m9.9482 9.5129h27.653c1.614 0 2.613 0.5561 3.29 2.0861l2.329 6.42v23.144c0 1.461-0.819 2.196-2.434 2.196h-33.733c-1.614 0-2.2725-0.808-2.2725-2.269v-23.071l2.2538-6.558c0.4508-1.185 1.2996-1.9481 2.9139-1.9481z"/>
  <path id="rect3326" style="opacity:.4;fill:url(#linearGradient3834)" d="m22 8h4v14h-1.181-1.21-0.973-0.636v-14z"/>
  <path id="path3273" style="opacity:.3;stroke:url(#linearGradient3281);stroke-linecap:square;stroke-width:1px;fill:none" d="m3.5052 17.5h40.99"/>
 </g>
</svg>
